images_sukapura_svg/cmd/32/formatcelldialog.svg

<svg viewBox="0 0 32 32" xmlns="http://www.w3.org/2000/svg" xmlns:xlink="http://www.w3.org/1999/xlink"><linearGradient id="a" gradientUnits="userSpaceOnUse" x1="13" x2="13" y1="23" y2="5"><stop offset="0" stop-color="#f7f7f7"/><stop offset=".22222222" stop-color="#fff"/><stop offset=".83333331" stop-color="#fff"/><stop offset="1" stop-color="#f7f7f7"/></linearGradient><linearGradient id="b" gradientUnits="userSpaceOnUse" x1="19.5" x2="19.5" y1="21.500001" y2="14.5"><stop offset="0" stop-color="#cfcfcf"/><stop offset=".07142864" stop-color="#e7e7e7"/><stop offset=".07142864" stop-color="#fff"/><stop offset=".5" stop-color="#f3f3f3"/><stop offset=".93333334" stop-color="#f9f9f9"/><stop offset=".93333334" stop-color="#fcfcfc"/><stop offset="1" stop-color="#fff"/></linearGradient><linearGradient id="c" gradientUnits="userSpaceOnUse" x1="19.428571" x2="19.428571" y1="18.25" y2="21.285715"><stop offset="0" stop-color="#f8f8f8"/><stop offset="1" stop-color="#fff"/></linearGradient><linearGradient id="d" gradientUnits="userSpaceOnUse" x1="15" x2="15" y1="4" y2="28"><stop offset="0" stop-color="#efefef"/><stop offset=".33333334" stop-color="#fff"/><stop offset=".8888889" stop-color="#fff"/><stop offset="1" stop-color="#f5f5f5"/></linearGradient><filter id="e" color-interpolation-filters="sRGB" height="1.116265" width="1.123983" x="-.061992" y="-.058132"><feGaussianBlur stdDeviation=".61991525"/></filter><path d="m4 4h24v24h-24z" fill="#ff9f0a"/><path d="m4 4h24v25.59322h-24z" filter="url(#e)" opacity=".15" stroke-width="1.032659"/><path d="m4 3c-.554 0-1 .446-1 1v5 19c0 .554.446 1 1 1h24c.554 0 1-.446 1-1v-19-5c0-.554-.446-1-1-1zm0 1h24v5 4 1 4 1 4 1 4h-6-1-5-1-5-1-5v-4-1-4-1-4-1-4-1z" fill="#69696e"/><path d="m4 4h24v24h-24z" fill="url(#d)"/><path d="m10 14h5v4h-5z" fill="#ff9f0a" stroke-width=".408248"/><path d="m9 4v4h-5v1h5v4h-5v1h5v4h-5v1h5v4h-5v1h5v4h1v-4h5v4h1v-4h5v4h1v-4h6v-1h-6v-4h6v-1h-6v-4h6v-1h-6v-4h6v-1h-6v-4h-1v4h-5v-4h-1v4h-5v-4zm1 5h5v4h-5zm6 0h5v4h-5zm-6 5h5v4h-5zm6 0h5v4h-5zm-6 5h5v4h-5zm6 0h5v4h-5z" fill="#bababa"/><path d="m10 13c-.554 0-1 .446-1 1v4c0 .554.446 1 1 1h5c.554 0 1-.446 1-1v-4c0-.554-.446-1-1-1zm0 1h5v4h-5z" fill="#c93400"/><g transform="matrix(1.33333 0 0 1.33333 .00008 .00008)"><path d="m15.749979 12.749972h7.500019v10.500026h-7.500019z" fill="url(#a)"/><path d="m16 12c-.554 0-1 .446-1 1v10c0 .554.446 1 1 1h7c.554 0 1-.446 1-1v-10c0-.554-.446-1-1-1zm-.250021.749972h7.500019v10.500026h-7.500019z" fill="#848489"/><g stroke-width=".607143"><path d="m16.874982 13.499974h5.250013v9.000022h-5.250013z" fill="#626262"/><path d="m17.249983 14.249976h4.500011v7.500018h-4.500011z" fill="url(#b)"/><path d="m17.999992 14.999977h3l.000008 3.000023h-3z" fill="#dadada"/><path d="m18 18h3v3h-3z" fill="url(#c)"/></g></g></svg>

<?xml version="1.0" encoding="UTF-8" standalone="no"?>
<svg
   xmlns:dc="http://purl.org/dc/elements/1.1/"
   xmlns:cc="http://creativecommons.org/ns#"
   xmlns:rdf="http://www.w3.org/1999/02/22-rdf-syntax-ns#"
   xmlns:svg="http://www.w3.org/2000/svg"
   xmlns="http://www.w3.org/2000/svg"
   xmlns:sodipodi="http://sodipodi.sourceforge.net/DTD/sodipodi-0.dtd"
   xmlns:inkscape="http://www.inkscape.org/namespaces/inkscape"
   viewBox="0 0 32 32"
   version="1.1"
   id="svg1103"
   sodipodi:docname="formatcelldialog.svg"
   inkscape:version="0.92.3 (unknown)"
   inkscape:export-filename="/home/rizmut/Dokumen/Rizmut/Github/libreoffice-style-sukapura/images_sukapura/cmd/32/entirecell.png"
   inkscape:export-xdpi="96"
   inkscape:export-ydpi="96">
  <metadata
     id="metadata1109">
    <rdf:RDF>
      <cc:Work
         rdf:about="">
        <dc:format>image/svg+xml</dc:format>
        <dc:type
           rdf:resource="http://purl.org/dc/dcmitype/StillImage" />
        <dc:title></dc:title>
      </cc:Work>
    </rdf:RDF>
  </metadata>
  <defs
     id="defs1107">
    <linearGradient
       id="a-3"
       gradientUnits="userSpaceOnUse"
       x1="11"
       x2="11"
       y1="21"
       y2="3"
       gradientTransform="translate(2,2)">
      <stop
         offset="0"
         stop-color="#f7f7f7"
         id="stop2-6" />
      <stop
         offset=".22222222"
         stop-color="#fff"
         id="stop4-7" />
      <stop
         offset=".83333331"
         stop-color="#fff"
         id="stop6-5" />
      <stop
         offset="1"
         stop-color="#f7f7f7"
         id="stop8" />
    </linearGradient>
    <linearGradient
       id="b-3"
       gradientUnits="userSpaceOnUse"
       x1="12.117647"
       x2="12.117647"
       y1="17.352942"
       y2="5.8235288"
       gradientTransform="matrix(0.60714286,0,0,0.60714286,12.142857,10.964286)">
      <stop
         offset="0"
         stop-color="#cfcfcf"
         id="stop11-5" />
      <stop
         offset="0.07142864"
         stop-color="#e7e7e7"
         id="stop13-6" />
      <stop
         offset="0.07142864"
         stop-color="#fff"
         id="stop15" />
      <stop
         offset=".5"
         stop-color="#f3f3f3"
         id="stop17" />
      <stop
         offset="0.93333334"
         stop-color="#f9f9f9"
         id="stop19" />
      <stop
         offset="0.93333334"
         stop-color="#fcfcfc"
         id="stop21" />
      <stop
         offset="1"
         stop-color="#fff"
         id="stop23" />
    </linearGradient>
    <linearGradient
       id="c"
       gradientUnits="userSpaceOnUse"
       x1="12"
       x2="12"
       y1="12"
       y2="17"
       gradientTransform="matrix(0.60714286,0,0,0.60714286,12.142857,10.964286)">
      <stop
         offset="0"
         stop-color="#f8f8f8"
         id="stop26" />
      <stop
         offset="1"
         stop-color="#fff"
         id="stop28" />
    </linearGradient>
  </defs>
  <sodipodi:namedview
     pagecolor="#ffffff"
     bordercolor="#666666"
     borderopacity="1"
     objecttolerance="10"
     gridtolerance="10"
     guidetolerance="10"
     inkscape:pageopacity="0"
     inkscape:pageshadow="2"
     inkscape:window-width="1366"
     inkscape:window-height="706"
     id="namedview1105"
     showgrid="false"
     inkscape:zoom="14.75"
     inkscape:cx="5.3360914"
     inkscape:cy="14.461483"
     inkscape:window-x="0"
     inkscape:window-y="0"
     inkscape:window-maximized="1"
     inkscape:current-layer="svg1103" />
  <linearGradient
     id="a"
     gradientUnits="userSpaceOnUse"
     x1="15"
     x2="15"
     y1="4"
     y2="28">
    <stop
       offset="0"
       stop-color="#efefef"
       id="stop1079" />
    <stop
       offset=".33333334"
       stop-color="#fff"
       id="stop1081" />
    <stop
       offset=".8888889"
       stop-color="#fff"
       id="stop1083" />
    <stop
       offset="1"
       stop-color="#f5f5f5"
       id="stop1085" />
  </linearGradient>
  <filter
     id="b"
     color-interpolation-filters="sRGB"
     height="1.116265"
     width="1.123983"
     x="-.061992"
     y="-.058132">
    <feGaussianBlur
       stdDeviation=".61991525"
       id="feGaussianBlur1088" />
  </filter>
  <g
     id="g857">
    <path
       style="fill:#ff9f0a;fill-opacity:1"
       id="path5724"
       d="M 4,4 H 28 V 28 H 4 Z"
       inkscape:connector-curvature="0" />
    <path
       id="path1091"
       stroke-width="1.032659"
       opacity=".15"
       filter="url(#b)"
       d="m4 4h24v25.59322h-24z" />
    <path
       style="fill:#69696e;fill-opacity:1"
       id="path1093"
       d="M 4 3 C 3.446 3 3 3.446 3 4 L 3 9 L 3 28 C 3 28.554 3.446 29 4 29 L 28 29 C 28.554 29 29 28.554 29 28 L 29 9 L 29 4 C 29 3.446 28.554 3 28 3 L 4 3 z M 4 4 L 28 4 L 28 9 L 28 13 L 28 14 L 28 18 L 28 19 L 28 23 L 28 24 L 28 28 L 22 28 L 21 28 L 16 28 L 15 28 L 10 28 L 9 28 L 4 28 L 4 24 L 4 23 L 4 19 L 4 18 L 4 14 L 4 13 L 4 9 L 4 8 L 4 4 z " />
    <path
       id="path1095"
       fill="url(#a)"
       d="m4 4h24v24h-24z" />
    <path
       sodipodi:nodetypes="ccccc"
       style="fill:#ff9f0a;fill-opacity:1;stroke-width:0.40824828"
       id="path5724-3"
       d="m 10,14 h 5 v 4 h -5 z"
       inkscape:connector-curvature="0" />
    <path
       id="path5728"
       d="M 9 4 L 9 8 L 4 8 L 4 9 L 9 9 L 9 13 L 4 13 L 4 14 L 9 14 L 9 18 L 4 18 L 4 19 L 9 19 L 9 23 L 4 23 L 4 24 L 9 24 L 9 28 L 10 28 L 10 24 L 15 24 L 15 28 L 16 28 L 16 24 L 21 24 L 21 28 L 22 28 L 22 24 L 28 24 L 28 23 L 22 23 L 22 19 L 28 19 L 28 18 L 22 18 L 22 14 L 28 14 L 28 13 L 22 13 L 22 9 L 28 9 L 28 8 L 22 8 L 22 4 L 21 4 L 21 8 L 16 8 L 16 4 L 15 4 L 15 8 L 10 8 L 10 4 L 9 4 z M 10 9 L 15 9 L 15 13 L 10 13 L 10 9 z M 16 9 L 21 9 L 21 13 L 16 13 L 16 9 z M 10 14 L 15 14 L 15 18 L 10 18 L 10 14 z M 16 14 L 21 14 L 21 18 L 16 18 L 16 14 z M 10 19 L 15 19 L 15 23 L 10 23 L 10 19 z M 16 19 L 21 19 L 21 23 L 16 23 L 16 19 z "
       style="fill:#bababa;fill-opacity:1" />
    <path
       sodipodi:nodetypes="sssssssssccccc"
       style="fill:#c93400;fill-opacity:1"
       id="path5722"
       d="m 10,13 c -0.554,0 -1,0.446 -1,1 v 4 c 0,0.554 0.446,1 1,1 h 5 c 0.554,0 1,-0.446 1,-1 v -4 c 0,-0.554 -0.446,-1 -1,-1 z m 0,1 h 5 v 4 h -5 z"
       inkscape:connector-curvature="0" />
  </g>
  <g
     transform="matrix(1.33333,0,0,1.33333,8e-5,8e-5)"
     id="g895">
    <path
       id="path31"
       d="m 15.749979,12.749972 h 7.500019 v 10.500026 h -7.500019 z"
       style="fill:url(#a-3)"
       inkscape:connector-curvature="0"
       sodipodi:nodetypes="ccccc" />
    <path
       id="path33"
       d="m 16,12 c -0.554,0 -1,0.446 -1,1 v 10 c 0,0.554 0.446,1 1,1 h 7 c 0.554,0 1,-0.446 1,-1 V 13 c 0,-0.554 -0.446,-1 -1,-1 z m -0.250021,0.749972 h 7.500019 v 10.500026 h -7.500019 z"
       style="fill:#848489"
       inkscape:connector-curvature="0"
       sodipodi:nodetypes="sssssssssccccc" />
    <path
       id="path35"
       d="m 16.874982,13.499974 h 5.250013 v 9.000022 h -5.250013 z"
       style="fill:#626262;stroke-width:0.60714287"
       inkscape:connector-curvature="0"
       sodipodi:nodetypes="ccccc" />
    <path
       id="path37"
       d="m 17.249983,14.249976 h 4.500011 v 7.500018 h -4.500011 z"
       style="fill:url(#b-3);stroke-width:0.60714287"
       inkscape:connector-curvature="0"
       sodipodi:nodetypes="ccccc" />
    <path
       id="path39"
       d="m 17.999992,14.999977 h 3 L 21,18 h -3 z"
       style="fill:#dadada;stroke-width:0.60714287"
       inkscape:connector-curvature="0"
       sodipodi:nodetypes="ccccc" />
    <path
       id="path41"
       d="m 18,18 h 3 v 3 h -3 z"
       style="fill:url(#c);stroke-width:0.60714287"
       inkscape:connector-curvature="0"
       sodipodi:nodetypes="ccccc" />
  </g>
</svg>
